X:179
T:Humours of Finchly. Ru2.179, The
%%VWML:RutherfordVol2-2249-p90-0
F:http://www.vwml.org/record/RutherfordVol2/2249/p90
Z:vmp.Ruairidh Greig 2015 www.village-music-project.org.uk
M:6/8
L:1/8
Q:1/4=100
K:F
c|AcA cAc|BdB dBd|AcA cAc|fgff2c|
AcA cAc|BcB d2e|fed cBA|GAGG2||
c|AFA fga|AFA f2a|AFA fga|G2GG2c|
AFA fga|gfe fed|cfd cAf|F2FF2||
W:Cast off and Hands across with the 3d. Couple .|
W:Cast up and Hands across with the Top Cou. :|
W:Foot it to your Partner cast off and Lead
W:through the 3d. Cou. & cast up Foot it and
W:Right Hand and Left at Top :|
T:Johnny's Frolick. Ru2.180
B:RUTHERFORD Complete Collection of 200 Country Dances Vol.2; 1759.
Z:vmp.Ruairidh Greig 2015 www.village-music-project.org.uk
M:6/8
L:1/8
Q:1/4=100
K:A
e|c2ed2f|efg a2c|dcB cde|BGEE2G|
ABc d2f|efga2f|ega edc|B3B2:|
|:B/c/|GAB Eed|cde c2a|gab ef=g|f3f2 (f/g/)|
aec dbg|af^d ebg|afd cdB|A3A2"Rpt added":|
W:The first Couple Foot it and turn with
W:your Right Hand cast off .| Turn with
W:your Left Hand and cast up :| Gallop
W:down one Cou. up again & cast off .|.
W:Right Hand & Left with the Top Couple :|
